img/vk.svg

<svg width="22" height="22" viewBox="0 0 22 22" fill="none" xmlns="http://www.w3.org/2000/svg">
<path d="M11 22C17.0751 22 22 17.0751 22 11C22 4.92487 17.0751 0 11 0C4.92487 0 0 4.92487 0 11C0 17.0751 4.92487 22 11 22Z" fill="#1A212F"/>
<path fill-rule="evenodd" clip-rule="evenodd" d="M10.5846 15.8244H11.448C11.448 15.8244 11.7088 15.7958 11.8419 15.6522C11.9645 15.5205 11.9606 15.273 11.9606 15.273C11.9606 15.273 11.9437 14.1145 12.4814 13.9439C13.0114 13.7759 13.692 15.0636 14.4134 15.5587C14.9589 15.9334 15.3734 15.8513 15.3734 15.8513L17.3023 15.8244C17.3023 15.8244 18.3114 15.7622 17.8329 14.9689C17.7937 14.904 17.5543 14.382 16.3988 13.3094C15.1893 12.1868 15.3513 12.3684 16.8082 10.4266C17.6955 9.24396 18.0502 8.52198 17.9394 8.21275C17.8337 7.91823 17.1811 7.99608 17.1811 7.99608L15.0093 8.00961C15.0093 8.00961 14.8483 7.98764 14.7289 8.05902C14.6122 8.12902 14.5371 8.29217 14.5371 8.29217C14.5371 8.29217 14.1934 9.2073 13.7349 9.98556C12.7679 11.6278 12.3812 11.7144 12.2231 11.6125C11.8555 11.3748 11.9472 10.6577 11.9472 10.1483C11.9472 8.55688 12.1886 7.89333 11.4772 7.72156C11.2411 7.6645 11.0674 7.62685 10.4637 7.62077C9.68872 7.61273 9.03282 7.62312 8.66143 7.80509C8.41436 7.92607 8.22377 8.19569 8.33985 8.21118C8.48338 8.2304 8.80849 8.29883 8.98085 8.53355C9.20341 8.8363 9.19557 9.51633 9.19557 9.51633C9.19557 9.51633 9.32342 11.3897 8.89693 11.6225C8.60417 11.7821 8.20259 11.4562 7.3404 9.96634C6.89862 9.20318 6.56508 8.35962 6.56508 8.35962C6.56508 8.35962 6.50077 8.20197 6.38606 8.11765C6.24683 8.01549 6.05232 7.98294 6.05232 7.98294L3.98852 7.99647C3.98852 7.99647 3.6787 8.0051 3.56497 8.13981C3.46379 8.25962 3.55693 8.50747 3.55693 8.50747C3.55693 8.50747 5.17268 12.2876 7.00216 14.1926C8.67967 15.9391 10.5846 15.8244 10.5846 15.8244Z" fill="#FFFDFB"/>
</svg>

<svg width="22" height="22" fill="none" xmlns="http://www.w3.org/2000/svg"><path d="M11 22c6.075 0 11-4.925 11-11S17.075 0 11 0 0 4.925 0 11s4.925 11 11 11z" fill="#1A212F"/><path fill-rule="evenodd" clip-rule="evenodd" d="M10.585 15.824h.863s.26-.028.394-.172c.122-.131.119-.379.119-.379s-.017-1.159.52-1.33c.53-.167 1.211 1.12 1.932 1.616.546.374.96.292.96.292l1.93-.027s1.008-.062.53-.855c-.04-.065-.279-.587-1.434-1.66-1.21-1.122-1.048-.94.41-2.882.886-1.183 1.241-1.905 1.13-2.214-.105-.295-.758-.217-.758-.217l-2.172.014s-.16-.022-.28.049c-.117.07-.192.233-.192.233s-.344.915-.802 1.694c-.967 1.642-1.354 1.728-1.512 1.627-.368-.238-.276-.955-.276-1.465 0-1.591.242-2.255-.47-2.426-.236-.058-.41-.095-1.013-.101-.775-.008-1.431.002-1.803.184-.247.121-.437.39-.321.406.143.02.468.088.64.323.223.302.216.982.216.982s.127 1.874-.3 2.107c-.292.16-.693-.167-1.556-1.657a13.85 13.85 0 01-.775-1.606s-.064-.158-.179-.242c-.14-.103-.334-.135-.334-.135l-2.063.013s-.31.01-.424.144c-.101.12-.008.367-.008.367s1.616 3.78 3.445 5.686c1.678 1.746 3.583 1.631 3.583 1.631z" fill="#FFFDFB"/></svg>
